X:1
T:Title
%%score [ ( 1 2 ) ( 3 4 ) ]
L:1/8
M:2/2
K:F
V:1 treble nm="Midi_74" snm=" "
V:2 treble 
V:3 bass nm="Midi_74"
V:4 bass 
V:1
"^A.D. 1430"!mf!!p! (D2 E2) (F2 A2) | d4 c4 |"^Richard de Castre's""^Prayer to Jesus" A2 G2 A4- | %3
w: |||
w: Jhe * su, *|for thy|woun- dés smerte|
 A2 F2 G2 A2 | F2 E2 D4- |"^R.R. Terry" D4 C4 |[M:2/2] D8- | D4!mf! A4 | (D2 E2) (F2 A2) | d4 c4 | %10
w: |||bought,|* for-|give * that *|I have|
w: * on feet and|on thyn hand|* és|two,|* O|make * me *|meeke and|
 A2 G2 A4- | A2"^cresc." A2 d2 e2 |!f! (f2 e2) (d2 c2) | (A2 G2)"^dim." (A2 c2) | d8- | d8!mf! || %16
w: grie- véd thee|* with word, and|wil, * and *|eek * with *|thought.||
w: low of herte,|* and thee to|love * as *|I * schulde *|do.||
 (B2 c2) (_e2 d2) | c4 B4 | G2 F2 D4- |"^___\n___" D2!<(! F2 G2 A2 | (c2 d2)!<)! (c2 =B2) | %21
w: Jhe * su, in|whom is|all my trust,|* that died up-|pon * the *|
w: Jhe * su, *|keepe them|that are good,|* a- mende them|that * han *|
!>(! A6 ^G2!>)! | A8- | A4 A4 | (D2 E2) (F2 A2) | d4 e4 | d2 c2 A4- | A2 F2 G2 B2 | %28
w: rood- é|tree,|* with-|drawe * myn *|herte from|flesh- li lust,|* and from all|
w: grie- véd|thee,|* and|send * them *|fruites of|earth- li food|* as each man|
 (A2"^dim." G2) (F2 E2) |"^molto ritard.""^dim." D4 (D3 C) | D8- | D8 |] %32
w: world * \-ly *|van- y *|té.||
w: need * eth *|in his de-|gree.||
V:2
 (D2 E2) (F2 A2) | d4 c4 | A2 G2 A4- | A2 D2 E2 E2 | D2 C2 A,4- | A,4 A,4 |[M:2/2] A,8- | A,4 A4 | %8
w: Jhe * su, *|Lord, that|ma- dest me,|* and with thy|bles- syd blood|* hast|||
 (D2 E2) (F2 A2) | d4 c4 | A2 G2 A4- | A2 E2 F2 G2 | (B2 G2) (F2 G2) | (F2 D2) (F2 G2) | F8- | %15
w: |||||||
 F8 || (D2 F2) (G2 F2) | _E4 D4 | _E2 C2 D4- | D2 C2 D2 F2 | (G2 A2) G4 | (E2 F2) E4 | E8- | %23
w: ||||||||
 E4 A4 | (D2 E2) (F2 A2) | d4 e4 | d2 c2 A4- | A2 D2 E2 F2 | (F2 E2) (D2 C2) | B,4 (B,3 B,) | %30
w: |||||||
 A,8- | A,8 |] %32
w: ||
V:3
 (D,2 E,2) (F,2 A,2) | D4 C4 | A,2 G,2 A,4- | A,2 A,2 C2 C2 | B,2 G,2 F,4 | E,8 |[M:2/2] F,8- | %7
w: ||||* * blood|hast||
w: ||||* * hand-|és||
 F,4 A,4 | (D,2 E,2) (F,2 A,2) | D4 C4 | A,2 G,2 A,4- | A,2 C2 A,2 C2 | (D2 C2) (A,2 G,2) | %13
w: ||||||
w: ||||||
 (C2 B,2) (C2 G,2) | A,8- | A,8 || (B,2 A,2) (B,2 B,2) | G,4 G,4 | B,2 A,2 B,4- | B,2 C2 B,2 C2 | %20
w: |||||||
w: |||||||
 (E2 F2) (E2 D2) | (C2 D2) =B,4 | ^C8- | C4 A,4 | (D,2 E,2) (F,2 A,2) | D4 E4 | %26
w: ||||||
w: ||||||
"^This edition""^?""^Andrew Sims 2017" D2 C2 A,4- | A,2 A,2 C2 D2 | C4 A,4 | F,4 (E,3 E,) | %30
w: ||||
w: ||||
 [D,,^F,-]8 | F,8 |] %32
w: ||
w: ||
V:4
 (D,2 E,2) (F,2 A,2) | D4 C4 | A,2 G,2 A,4- | A,2 D,2 C,2 A,,2 | B,,2 C,2 D,4 | A,,8 | %6
[M:2/2] D,8- | D,4 A,4 | (D,2 E,2) (F,2 A,2) | D4 C4 | A,2 G,2 A,4- | A,2 A,2 D,2 C,2 | %12
 (B,,2 C,2) (D,2 E,2) | (F,2 G,2) (F,2 E,2) | D,8- | D,8 || (G,2 F,2) (_E,2 B,,2) | C,4 G,4 | %18
 _E,2 F,2 B,4- | B,2 A,2 G,2 F,2 | (E,2 D,2) (E,2 G,2) | (A,2 D,2) E,4 | A,,8- | A,,4 A,4 | %24
 (D,2 E,2) (F,2 A,2) | D4 E4 | D2 C2 A,4- | A,2 D,2 C,2 B,,2 | (F,2 C,2) (D,2 A,,2) | %29
 B,,4 (G,,3 G,,) | D,,8- | D,,8 |] %32

